config/_h5ai/public/images/ui/back.svg

<svg xmlns:svg="http://www.w3.org/2000/svg" xmlns="http://www.w3.org/2000/svg" width="24" height="24" viewBox="0 0 24 24" version="1.1">
  <path d="M20 11h-12.17l5.59-5.59-1.42-1.41-8 8 8 8 1.41-1.41-5.58-5.59h12.17v-2z" fill="#555"/>
</svg>

<svg width="24" height="24" viewBox="0 0 24 24" fill="none" xmlns="http://www.w3.org/2000/svg">
<path d="M20 11H7.83L13.42 5.41L12 4L4 12L12 20L13.41 18.59L7.83 13H20V11Z" fill="#CBA6F7"/>
</svg>
